icons/square-24.svg

<svg xmlns="http://www.w3.org/2000/svg" width="24" height="24" viewBox="0 0 24 24">
  <defs/>
  <path d="M6,7.75 C6,6.784 6.784,6 7.75,6 L16.25,6 C17.216,6 18,6.784 18,7.75 L18,16.25 C18,17.216 17.216,18 16.25,18 L7.75,18 C6.784,18 6,17.216 6,16.25 Z M7.75,7.5 C7.612,7.5 7.5,7.612 7.5,7.75 L7.5,16.25 C7.5,16.388 7.612,16.5 7.75,16.5 L16.25,16.5 C16.388,16.5 16.5,16.388 16.5,16.25 L16.5,7.75 C16.5,7.612 16.388,7.5 16.25,7.5 Z"/>
</svg>

<svg xmlns="http://www.w3.org/2000/svg" width="24" height="24" viewBox="0 0 24 24"><path fill-rule="evenodd" d="M6 7.75C6 6.784 6.784 6 7.75 6h8.5c.966 0 1.75.784 1.75 1.75v8.5A1.75 1.75 0 0116.25 18h-8.5A1.75 1.75 0 016 16.25v-8.5zm1.75-.25a.25.25 0 00-.25.25v8.5c0 .138.112.25.25.25h8.5a.25.25 0 00.25-.25v-8.5a.25.25 0 00-.25-.25h-8.5z"/></svg>
